X:104
T:score190
L:1/8
Q:1/4=96
M:3/4
I:linebreak $
K:C
!mf! gf ef de | fe de cd | eg fe dc |$ dc BA G2 | gf ef de | fe de cd | eg fe de |$ c6 | %8
